!!!SOCIAL_FUNCTION:	songs of the buffalo society (dream societies)
!!!PDT:	1918

Specific Region: Dakotas, Minnesota, Montana, Nebraska
!!!REG: Dakotas and Montana
!!!LING_GROUP: Siouan
!!!LANG: Tone
!!!OTL@ENG: Buffalo Society Song (b)
!!!ONM: No. 102
**kern
*Imale
*clefG2
*k[f#]
*M2/4
*MM126
4f#
16e
8e
16f#
=2
16e
8.d
16d
8.B
=3
4f#
16e
8e
16f#
=4
16e
8.d
16d
8.B
=5||
*M3/4
16B
8.B
4.A
8d
=6
16d
8.B
8B
8B
8.A
16B
=7||
*M2/4
4B
8.A
16A
=8
2A
=9
16d
8.d
16d
8.B
=10
4f#
16e
8e
16f#
=11
16e
8.d
16d
8.B
=12
4f#
16e
8e
16f#
=13
16e
8.d
16d
8.B
=14||
*M3/4
16B
8.B
4.A
8d
=15
16d
8.B
8B
8B
8.A
16B
=16||
*M2/4
4B
8.A
16A
=17
2A
==
*-
!!!CNT: Native American -- Sioux
!!!MRD: 1911/07//-1914///
!!!OCL: Frances Densmore
!!!YOR1: Teton Sioux Music, Bulletin 61,
!!!YOR2: Bureau of American Ethnology, Smithsonian Institution
!!!PPR: Government Printing Office
!!!PPP: Washington, D.C.
!!!PDT: 1918///
!!!ENC: Craig Stuart Sapp
!!!END: 2002/03/25/
!!!EEV: 2002/03/31/
!!!AGN: Society Song/Song of the Buffalo Society
!!!MPN@@SIO: Chetang'-hota
!!!MPN@ENG: Gray Hawk
!!!TXO: Teton Sioux
!!!MLC: Standing Rock Reservation, South Dakota, United States of America
!!!ARL: 45.9/-100.7#
!!!catalog: Catalogue No. 550
!!!PPG: 292
!!!EFL: 102/245
!!!VTS: 3263392772
